static/assets/template/assets/img/icons/essential/detailed/Audio.svg

<svg height="119" viewBox="0 0 149 119" width="149" xmlns="http://www.w3.org/2000/svg"><g fill="none" fill-rule="evenodd" transform="translate(2 1)"><g fill-rule="nonzero"><path d="m114 58.6c0 9.3-2.5 18.4-7.1 26.4-1.2 2.1-3.4 3.3-5.7 3.3-1.1 0-2.3-.3-3.3-.9-1.9-1.1-3-2.9-3.2-4.9-.2-1.4.1-2.8.9-4.1 3.5-6 5.3-12.8 5.3-19.8s-1.9-13.8-5.3-19.8c-1.8-3.1-.8-7.2 2.4-9 3.1-1.8 7.2-.8 9 2.4 1.1 1.9 2.1 3.9 3 5.9 2.5 6.5 4 13.4 4 20.5z"/><path d="m144.6 58.6c0 15.7-5.4 31.1-15.2 43.3-1.3 1.6-3.2 2.5-5.1 2.5-1.4 0-2.9-.5-4.1-1.5-1.8-1.4-2.6-3.6-2.4-5.7.1-1.2.6-2.5 1.4-3.5 8.1-10 12.3-22.2 12.3-35.1s-4.3-25-12.3-35c-2.3-2.8-1.8-7 1-9.2 2.8-2.3 7-1.8 9.3 1 1.4 1.8 2.8 3.6 4 5.5 7.3 11.1 11.1 24.1 11.1 37.7z"/><path d="m114 58.6c0 9.3-2.5 18.4-7.1 26.4-1.2 2.1-3.4 3.3-5.7 3.3-1.1 0-2.3-.3-3.3-.9-1.9-1.1-3-2.9-3.2-4.9 3.6-5.1 5.9-11.1 6.7-17.4.9-6.9 0-14-2.7-20.3-1.4-3.4.2-7.2 3.5-8.6 2.8-1.2 5.9-.3 7.7 1.9 2.6 6.5 4.1 13.4 4.1 20.5z"/><path d="m144.6 58.6c0 15.7-5.4 31.1-15.2 43.3-1.3 1.6-3.2 2.5-5.1 2.5-1.4 0-2.9-.5-4.1-1.5-1.8-1.4-2.6-3.6-2.4-5.7 8-8.6 13-19.2 14.5-31 1.6-12.8-1.1-25.3-7.8-36.3-1.9-3.1-.9-7.2 2.2-9.1 2.2-1.3 4.8-1.2 6.9 0 7.2 11.2 11 24.2 11 37.8z"/><path d="m83.4 8.1v101c0 2.7-1.5 5.2-4 6.5-2.4 1.2-5.4 1-7.6-.6l-2.6-1.9-30-23.4h-29.6c-5.3 0-9.6-4.3-9.6-9.6v-42.9c0-5.3 4.3-9.6 9.6-9.6h29.6l30-23.4 2.6-1.9c2.2-1.6 5.1-1.8 7.6-.6 2.4 1.2 4 3.7 4 6.4z"/><path d="m83.4 17.2v91.9c0 2.7-1.5 5.2-4 6.5-2.4 1.2-5.4 1-7.6-.6l-2.6-1.9-30-23.4h-29.6c-5.3 0-9.6-4.3-9.6-9.6v-33.8c0-5.3 4.3-9.6 9.6-9.6h29.6l30-23.4 2.6-1.9c2.2-1.6 5.1-1.8 7.6-.6 2.4 1.2 4 3.7 4 6.4z"/><path d="m83.4 17.2v79.7c0 2.7-1.5 5.2-4 6.5-2.4 1.2-5.4 1-7.6-.6l-2.6-1.9-30-23.4h-29.6c-5.3 0-9.6-4.3-9.6-9.6v-21.6c0-5.3 4.3-9.6 9.6-9.6h29.6l30-23.4 2.6-1.9c2.2-1.6 5.1-1.8 7.6-.6 2.4 1.2 4 3.7 4 6.4z"/></g><path d="m56.7 13.9-1.4 1.1" stroke-linecap="round" stroke-linejoin="round" stroke-width="3.2"/><path d="m72.3 115.3c2.1 1.3 4.8 1.4 7.1.3 2.4-1.2 4-3.7 4-6.5v-101c0-2.7-1.5-5.2-4-6.5-2.4-1.2-5.4-1-7.6.6l-2.6 1.9-6.2 4.9" stroke-linecap="round" stroke-linejoin="round" stroke-width="3.2"/><path d="m51.3 18.1-12.1 9.4h-29.6c-5.3 0-9.6 4.3-9.6 9.6v21 .9 21c0 5.3 4.3 9.6 9.6 9.6h29.6l25.3 19.8" stroke-linecap="round" stroke-linejoin="round" stroke-width="3.2"/><path d="m112.3 45.3c1.1 4.3 1.7 8.8 1.7 13.3 0 9.3-2.5 18.4-7.1 26.4-1.2 2.1-3.4 3.3-5.7 3.3-1.1 0-2.3-.3-3.3-.9-2.7-1.6-3.9-4.8-3-7.6" stroke-linecap="round" stroke-linejoin="round" stroke-width="3.2"/><path d="m98.7 71.5c1.4-4.1 2.1-8.4 2.1-12.8 0-7-1.8-13.8-5.3-19.8-1.8-3.1-.8-7.2 2.4-9 3.1-1.8 7.2-.8 9 2.4.9 1.5 1.6 3 2.4 4.5" stroke-linecap="round" stroke-linejoin="round" stroke-width="3.2"/><path d="m128.9 41.6c-.3-1-.7-2-1-3" stroke-linecap="round" stroke-linejoin="round" stroke-width="3.2"/><path d="m125 32.5c-1.7-3.1-3.6-6.1-5.9-8.9s-1.8-7 1-9.3 7-1.8 9.3 1c9.9 12.4 15.2 27.4 15.2 43.3 0 15.7-5.4 31.1-15.2 43.3-1.3 1.6-3.2 2.5-5.1 2.5-1.4 0-2.9-.5-4.1-1.5-2.8-2.3-3.3-6.4-1-9.3 8.1-10 12.3-22.2 12.3-35.1 0-2.8-.2-5.7-.6-8.4" stroke-linecap="round" stroke-linejoin="round" stroke-width="3.2"/></g></svg>

<?xml version="1.0" encoding="UTF-8"?>
<svg width="149px" height="119px" viewBox="0 0 149 119" version="1.1" xmlns="http://www.w3.org/2000/svg" xmlns:xlink="http://www.w3.org/1999/xlink">
    <!-- Generator: Sketch 51.2 (57519) - http://www.bohemiancoding.com/sketch -->
    <title>Audio</title>
    <desc>Created with Sketch.</desc>
    <defs></defs>
    <g id="Page-1" stroke="none" stroke-width="1" fill="none" fill-rule="evenodd">
        <g id="Audio" transform="translate(2.000000, 1.000000)">
            <path d="M114,58.6 C114,67.9 111.5,77 106.9,85 C105.7,87.1 103.5,88.3 101.2,88.3 C100.1,88.3 98.9,88 97.9,87.4 C96,86.3 94.9,84.5 94.7,82.5 C94.5,81.1 94.8,79.7 95.6,78.4 C99.1,72.4 100.9,65.6 100.9,58.6 C100.9,51.6 99,44.8 95.6,38.8 C93.8,35.7 94.8,31.6 98,29.8 C101.1,28 105.2,29 107,32.2 C108.1,34.1 109.1,36.1 110,38.1 C112.5,44.6 114,51.5 114,58.6 Z" id="Shape" class="fill-neutral" fill-rule="nonzero"></path>
            <path d="M144.6,58.6 C144.6,74.3 139.2,89.7 129.4,101.9 C128.1,103.5 126.2,104.4 124.3,104.4 C122.9,104.4 121.4,103.9 120.2,102.9 C118.4,101.5 117.6,99.3 117.8,97.2 C117.9,96 118.4,94.7 119.2,93.7 C127.3,83.7 131.5,71.5 131.5,58.6 C131.5,45.7 127.2,33.6 119.2,23.6 C116.9,20.8 117.4,16.6 120.2,14.4 C123,12.1 127.2,12.6 129.5,15.4 C130.9,17.2 132.3,19 133.5,20.9 C140.8,32 144.6,45 144.6,58.6 Z" id="Shape" class="fill-neutral" fill-rule="nonzero"></path>
            <path d="M114,58.6 C114,67.9 111.5,77 106.9,85 C105.7,87.1 103.5,88.3 101.2,88.3 C100.1,88.3 98.9,88 97.9,87.4 C96,86.3 94.9,84.5 94.7,82.5 C98.3,77.4 100.6,71.4 101.4,65.1 C102.3,58.2 101.4,51.1 98.7,44.8 C97.3,41.4 98.9,37.6 102.2,36.2 C105,35 108.1,35.9 109.9,38.1 C112.5,44.6 114,51.5 114,58.6 Z" id="Shape" class="fill-primary-100" fill-rule="nonzero"></path>
            <path d="M144.6,58.6 C144.6,74.3 139.2,89.7 129.4,101.9 C128.1,103.5 126.2,104.4 124.3,104.4 C122.9,104.4 121.4,103.9 120.2,102.9 C118.4,101.5 117.6,99.3 117.8,97.2 C125.8,88.6 130.8,78 132.3,66.2 C133.9,53.4 131.2,40.9 124.5,29.9 C122.6,26.8 123.6,22.7 126.7,20.8 C128.9,19.5 131.5,19.6 133.6,20.8 C140.8,32 144.6,45 144.6,58.6 Z" id="Shape" class="fill-primary-100" fill-rule="nonzero"></path>
            <path d="M83.4,8.1 L83.4,109.1 C83.4,111.8 81.9,114.3 79.4,115.6 C77,116.8 74,116.6 71.8,115 L69.2,113.1 L39.2,89.7 L9.6,89.7 C4.3,89.7 4.54747351e-13,85.4 4.54747351e-13,80.1 L4.54747351e-13,37.2 C4.54747351e-13,31.9 4.3,27.6 9.6,27.6 L39.2,27.6 L69.2,4.2 L71.8,2.3 C74,0.7 76.9,0.5 79.4,1.7 C81.8,2.9 83.4,5.4 83.4,8.1 Z" id="Shape" class="fill-neutral" fill-rule="nonzero"></path>
            <path d="M83.4,17.2 L83.4,109.1 C83.4,111.8 81.9,114.3 79.4,115.6 C77,116.8 74,116.6 71.8,115 L69.2,113.1 L39.2,89.7 L9.6,89.7 C4.3,89.7 4.54747351e-13,85.4 4.54747351e-13,80.1 L4.54747351e-13,46.3 C4.54747351e-13,41 4.3,36.7 9.6,36.7 L39.2,36.7 L69.2,13.3 L71.8,11.4 C74,9.8 76.9,9.6 79.4,10.8 C81.8,12 83.4,14.5 83.4,17.2 Z" id="Shape" class="fill-primary-200" fill-rule="nonzero"></path>
            <path d="M83.4,17.2 L83.4,96.9 C83.4,99.6 81.9,102.1 79.4,103.4 C77,104.6 74,104.4 71.8,102.8 L69.2,100.9 L39.2,77.5 L9.6,77.5 C4.3,77.5 4.54747351e-13,73.2 4.54747351e-13,67.9 L4.54747351e-13,46.3 C4.54747351e-13,41 4.3,36.7 9.6,36.7 L39.2,36.7 L69.2,13.3 L71.8,11.4 C74,9.8 76.9,9.6 79.4,10.8 C81.8,12 83.4,14.5 83.4,17.2 Z" id="Shape" class="fill-primary-100" fill-rule="nonzero"></path>
            <path d="M56.7,13.9 L55.3,15" id="Shape" class="stroke-primary" stroke-width="3.2" stroke-linecap="round" stroke-linejoin="round"></path>
            <path d="M72.3,115.3 C74.4,116.6 77.1,116.7 79.4,115.6 C81.8,114.4 83.4,111.9 83.4,109.1 L83.4,8.1 C83.4,5.4 81.9,2.9 79.4,1.6 C77,0.4 74,0.6 71.8,2.2 L69.2,4.1 L63,9" id="Shape" class="stroke-primary" stroke-width="3.2" stroke-linecap="round" stroke-linejoin="round"></path>
            <path d="M51.3,18.1 L39.2,27.5 L9.6,27.5 C4.3,27.5 2.27373675e-13,31.8 2.27373675e-13,37.1 L2.27373675e-13,58.1 L2.27373675e-13,59 L2.27373675e-13,80 C2.27373675e-13,85.3 4.3,89.6 9.6,89.6 L39.2,89.6 L64.5,109.4" id="Shape" class="stroke-primary" stroke-width="3.2" stroke-linecap="round" stroke-linejoin="round"></path>
            <path d="M112.3,45.3 C113.4,49.6 114,54.1 114,58.6 C114,67.9 111.5,77 106.9,85 C105.7,87.1 103.5,88.3 101.2,88.3 C100.1,88.3 98.9,88 97.9,87.4 C95.2,85.8 94,82.6 94.9,79.8" id="Shape" class="stroke-primary" stroke-width="3.2" stroke-linecap="round" stroke-linejoin="round"></path>
            <path d="M98.7,71.5 C100.1,67.4 100.8,63.1 100.8,58.7 C100.8,51.7 99,44.9 95.5,38.9 C93.7,35.8 94.7,31.7 97.9,29.9 C101,28.1 105.1,29.1 106.9,32.3 C107.8,33.8 108.5,35.3 109.3,36.8" id="Shape" class="stroke-primary" stroke-width="3.2" stroke-linecap="round" stroke-linejoin="round"></path>
            <path d="M128.9,41.6 C128.6,40.6 128.2,39.6 127.9,38.6" id="Shape" class="stroke-primary" stroke-width="3.2" stroke-linecap="round" stroke-linejoin="round"></path>
            <path d="M125,32.5 C123.3,29.4 121.4,26.4 119.1,23.6 C116.8,20.8 117.3,16.6 120.1,14.3 C122.9,12 127.1,12.5 129.4,15.3 C139.3,27.7 144.6,42.7 144.6,58.6 C144.6,74.3 139.2,89.7 129.4,101.9 C128.1,103.5 126.2,104.4 124.3,104.4 C122.9,104.4 121.4,103.9 120.2,102.9 C117.4,100.6 116.9,96.5 119.2,93.6 C127.3,83.6 131.5,71.4 131.5,58.5 C131.5,55.7 131.3,52.8 130.9,50.1" id="Shape" class="stroke-primary" stroke-width="3.2" stroke-linecap="round" stroke-linejoin="round"></path>
        </g>
    </g>
</svg>
